X: 22
T:Millisons Jegge
M:6/8
L:1/8
Q:110
R:Jig
K:DDor
a|a>gf e2d|c2d e2a|a>gf e2d|c3 d2||
A|AcA AcA|AcA c2c|dfd dfd|dfd f2f|ege ege|ege g2a|a>gf e2d|^c3 d2||

